X: 21
T: The Irish Washerwoman
I: Irish Washerwoman, The	J-7	G	jig
M: 6/8
R: jig
K: G
d/c/| "G"BGG DGG| BGB dcB| "D"cAA EAA| cAc edc|
      "G"BGG DGG| BGB dcB| "D"cBc Adc| "G"BGG G2 :|
|:g| "G"gdg gdg| gdg bag| "D"fdf fdf| fdf agf|
   "C"egg "G"dgg| "C"cgg "G"Bgg| "D"cBc Adc| "G"BGG G2 :|
%%text Roaring Jelly  J-27

%%vskip 6pt

